icons/svg/seamark/building_water_police_station.svg

<?xml version="1.0" encoding="UTF-8" standalone="no"?>
<svg
   xmlns:dc="http://purl.org/dc/elements/1.1/"
   xmlns:cc="http://creativecommons.org/ns#"
   xmlns:rdf="http://www.w3.org/1999/02/22-rdf-syntax-ns#"
   xmlns:svg="http://www.w3.org/2000/svg"
   xmlns="http://www.w3.org/2000/svg"
   xmlns:sodipodi="http://sodipodi.sourceforge.net/DTD/sodipodi-0.dtd"
   xmlns:inkscape="http://www.inkscape.org/namespaces/inkscape"
   width="580"
   height="580"
   id="svg2"
   version="1.1"
   inkscape:version="0.48.4 r9939"
   sodipodi:docname="building_water_police_station.svg">
  <defs
     id="defs13">
    <inkscape:path-effect
       effect="gears"
       id="path-effect3774"
       is_visible="true"
       teeth="6"
       phi="-1.2" />
    <inkscape:path-effect
       effect="bend_path"
       id="path-effect3772"
       is_visible="false"
       bendpath="m 95.790098,316.51174 c 144.429032,-206.42506 223.313032,-11.7428 339.548092,0"
       prop_scale="1.19"
       scale_y_rel="false"
       vertical="false"
       bendpath-nodetypes="cc" />
  </defs>
  <sodipodi:namedview
     pagecolor="#ffffff"
     bordercolor="#666666"
     borderopacity="1"
     objecttolerance="10"
     gridtolerance="10"
     guidetolerance="10"
     inkscape:pageopacity="0"
     inkscape:pageshadow="2"
     inkscape:window-width="1324"
     inkscape:window-height="739"
     id="namedview11"
     showgrid="false"
     inkscape:zoom="0.5754386"
     inkscape:cx="385.8517"
     inkscape:cy="282.5718"
     inkscape:window-x="42"
     inkscape:window-y="1024"
     inkscape:window-maximized="1"
     inkscape:current-layer="svg2"
     inkscape:snap-object-midpoints="false"
     inkscape:snap-page="true" />
  <metadata
     id="metadata2975">image/svg+xmlen<rdf:RDF>
  <cc:Work
     rdf:about="">
    <dc:format>image/svg+xml</dc:format>
    <dc:type
       rdf:resource="http://purl.org/dc/dcmitype/StillImage" />
    <dc:title />
  </cc:Work>
</rdf:RDF>
</metadata>
  <path
     sodipodi:type="arc"
     style="opacity:0.61739131;color:#000000;fill:#fefefe;fill-opacity:1;stroke:none;stroke-width:26.05776978;marker:none;visibility:visible;display:inline;overflow:visible;enable-background:accumulate"
     sodipodi:cx="252.52119"
     sodipodi:cy="231.63135"
     sodipodi:rx="284.15234"
     sodipodi:ry="284.15234"
     d="m 536.67354,231.63135 a 284.15234,284.15234 0 1 1 -568.304689,0 284.15234,284.15234 0 1 1 568.304689,0 z"
     transform="matrix(0.78253689,0,0,0.7896367,92.392846,107.09539)"
     id="path2987-2" />
  <path
     sodipodi:type="arc"
     style="color:#000000;fill:none;stroke:#124dc8;stroke-width:34.40240432;stroke-linecap:round;stroke-linejoin:miter;stroke-miterlimit:4;stroke-opacity:1;stroke-dasharray:none;stroke-dashoffset:0;marker:none;visibility:visible;display:inline;overflow:visible;enable-background:accumulate"
     id="path2987"
     sodipodi:cx="252.52119"
     sodipodi:cy="231.63135"
     sodipodi:rx="284.15234"
     sodipodi:ry="284.15234"
     d="m 536.67354,231.63135 a 284.15234,284.15234 0 1 1 -568.304689,0 284.15234,284.15234 0 1 1 568.304689,0 z"
     transform="matrix(0.78253689,0,0,0.7896367,92.392846,107.09539)" />
  <path
     style="font-size:medium;font-style:normal;font-variant:normal;font-weight:normal;font-stretch:normal;text-indent:0;text-align:start;text-decoration:none;line-height:normal;letter-spacing:normal;word-spacing:normal;text-transform:none;direction:ltr;block-progression:tb;writing-mode:lr-tb;text-anchor:start;baseline-shift:baseline;color:#000000;fill:#000000;fill-opacity:1;stroke:none;stroke-width:14.85045528;marker:none;visibility:visible;display:inline;overflow:visible;enable-background:accumulate;font-family:Sans;-inkscape-font-specification:Sans"
     d="m 246.96138,239.34354 c -1.48908,0.0984 -2.95858,1.1981 -4.13007,3.09071 -9.53561,15.45021 -25.09381,21.66235 -34.65429,21.66235 -1.28149,0 -2.68827,-0.12514 -4.15742,-0.35557 -2.1204,10.59628 -5.01043,19.6966 -7.93193,27.43351 4.34998,1.33655 8.47387,1.88725 12.08935,1.88725 10.86929,0 26.20376,-4.86762 39.03053,-21.66235 12.83422,16.8099 28.18383,21.66235 39.05787,21.66235 10.86923,0 26.20373,-4.86765 39.03052,-21.66235 12.83421,16.8099 28.18385,21.66235 39.05788,21.66235 5.28256,0 11.61963,-1.15761 18.21606,-4.26683 -3.18569,-7.39543 -6.42942,-16.07269 -9.02598,-26.2574 -3.35402,1.03825 -6.51556,1.55904 -9.19008,1.55904 -9.5604,0 -25.13756,-6.20789 -34.68164,-21.66235 -1.23182,-1.99447 -2.79466,-3.10779 -4.36257,-3.10779 -1.5679,0 -3.13074,1.11332 -4.36255,3.10779 -9.53569,15.45025 -25.12125,21.66235 -34.68164,21.66235 -9.56041,0 -25.16493,-6.20789 -34.709,-21.66235 -1.29332,-2.08982 -2.95105,-3.20484 -4.59504,-3.09071 z"
     id="path3-9"
     inkscape:connector-curvature="0"
     sodipodi:nodetypes="ccsccscscsccscscscc" />
  <path
     inkscape:connector-curvature="0"
     sodipodi:nodetypes="cccscccccsccc"
     d="m 292.66916,452.44372 0,0 c 49.62713,-34.27505 133.08872,-40.40513 133.8289,-118.73367 0.35325,-35.12244 -20.54749,-46.22054 -27.7927,-89.63678 -3.31302,-19.85297 14.69833,-56.57236 14.69833,-56.57236 l -34.60415,-26.08666 c -20.73517,13.12835 -59.68733,21.01499 -92.4174,-5.94098 -31.60994,28.22363 -70.85283,21.78839 -92.10515,9.43938 l -33.51939,27.35112 c 0,0 19.48798,36.02335 16.98317,55.9843 -5.47776,43.65239 -25.91237,55.51774 -24.13396,90.60059 3.91849,78.24208 87.56598,81.27042 138.54674,113.67807 l 0,0"
     style="fill:none;stroke:#000000;stroke-width:19.60552025;stroke-linecap:round;stroke-linejoin:round;stroke-miterlimit:4;stroke-opacity:1;stroke-dasharray:none"
     id="path4295" />
  <path
     style="font-size:medium;font-style:normal;font-variant:normal;font-weight:normal;font-stretch:normal;text-indent:0;text-align:start;text-decoration:none;line-height:normal;letter-spacing:normal;word-spacing:normal;text-transform:none;direction:ltr;block-progression:tb;writing-mode:lr-tb;text-anchor:start;baseline-shift:baseline;color:#000000;fill:#000000;fill-opacity:1;stroke:none;stroke-width:14.85045528;marker:none;visibility:visible;display:inline;overflow:visible;enable-background:accumulate;font-family:Sans;-inkscape-font-specification:Sans"
     d="m 246.96138,300.61079 c -1.48908,0.0984 -2.95858,1.19811 -4.13007,3.09072 -9.53561,15.45021 -25.09381,21.66234 -34.65429,21.66234 -6.17327,0 -14.86231,-2.59428 -22.81111,-8.58835 -2.69447,6.88321 -3.77616,11.9574 -3.33688,20.62299 1e-5,0.009 1e-5,0.0183 0,0.0273 0.15402,3.07537 0.44114,5.91055 0.82055,8.561 9.05083,6.24609 18.16524,8.3422 25.32744,8.3422 10.86929,0 26.20376,-4.86763 39.03053,-21.66235 12.83422,16.80989 28.18383,21.66235 39.05787,21.66235 10.86923,0 26.20373,-4.86765 39.03052,-21.66235 12.83421,16.80989 28.18385,21.66235 39.05788,21.66235 9.34077,0 21.99068,-3.59254 33.50553,-15.26212 0.11724,-1.79463 0.17284,-3.66459 0.19146,-5.63439 0.0935,-9.29759 -1.4159,-14.46876 -4.86856,-22.04527 -9.25589,9.86457 -21.0459,13.97659 -28.82843,13.97659 -9.5604,0 -25.13756,-6.20789 -34.68164,-21.66235 -1.23182,-1.99447 -2.79466,-3.1078 -4.36257,-3.1078 -1.5679,0 -3.13074,1.11333 -4.36255,3.1078 -9.53569,15.45025 -25.12125,21.66235 -34.68164,21.66235 -9.56041,0 -25.16493,-6.20789 -34.709,-21.66235 -1.29332,-2.08982 -2.95105,-3.20484 -4.59504,-3.09072 z"
     id="path3-9-5"
     inkscape:connector-curvature="0"
     sodipodi:nodetypes="ccsccccscscscccscscscc" />
  <path
     style="font-size:medium;font-style:normal;font-variant:normal;font-weight:normal;font-stretch:normal;text-indent:0;text-align:start;text-decoration:none;line-height:normal;letter-spacing:normal;word-spacing:normal;text-transform:none;direction:ltr;block-progression:tb;writing-mode:lr-tb;text-anchor:start;baseline-shift:baseline;color:#000000;fill:#000000;fill-opacity:1;stroke:none;stroke-width:14.85045528;marker:none;visibility:visible;display:inline;overflow:visible;enable-background:accumulate;font-family:Sans;-inkscape-font-specification:Sans"
     d="m 246.96138,360.12755 c -1.48908,0.0984 -2.95858,1.19811 -4.13007,3.09072 -8.19536,13.27865 -20.81539,19.72785 -30.27806,21.27943 1.88365,1.04862 3.83779,2.1128 5.90792,3.20012 7.03337,3.69424 15.01714,7.06598 23.57694,10.50296 1.75199,-1.80779 3.48767,-3.8153 5.16944,-6.01732 4.63305,6.06823 9.58743,10.58166 14.55097,13.86719 5.28564,2.14538 10.68809,4.41777 16.11,6.86521 2.99657,0.64267 5.8137,0.92994 8.3969,0.92994 10.86923,0 26.20373,-4.86764 39.03052,-21.66234 2.25658,2.95561 4.60087,5.5404 6.97462,7.79517 11.57212,-5.09165 22.38948,-9.81866 31.48152,-15.0433 0.0474,-0.0273 0.0894,-0.0548 0.13676,-0.082 -9.59343,-0.19174 -24.82181,-6.42218 -34.21666,-21.635 -1.23182,-1.99447 -2.79466,-3.1078 -4.36257,-3.1078 -1.5679,0 -3.13074,1.11333 -4.36255,3.1078 -9.53569,15.45024 -25.12125,21.66234 -34.68164,21.66234 -9.56041,0 -25.16493,-6.20789 -34.709,-21.66234 -1.29332,-2.08983 -2.95105,-3.20484 -4.59504,-3.09072 z"
     id="path3-9-5-1"
     inkscape:connector-curvature="0"
     sodipodi:nodetypes="cccsccccscccccscscc" />
</svg>

<svg width="580" height="580" viewBox="0 0 580 580" fill="none" xmlns="http://www.w3.org/2000/svg">
<path opacity="0.617391" d="M512.36 290C512.36 349.508 488.933 406.58 447.232 448.659C405.532 490.737 348.974 514.377 290 514.377C231.027 514.377 174.469 490.737 132.768 448.659C91.0675 406.58 67.6404 349.508 67.6404 290C67.6404 230.491 91.0675 173.42 132.768 131.341C174.469 89.2625 231.027 65.6228 290 65.6228C348.974 65.6228 405.532 89.2625 447.232 131.341C488.933 173.42 512.36 230.491 512.36 290V290Z" fill="#FEFEFE"/>
<path d="M512.36 290C512.36 349.508 488.933 406.58 447.232 448.659C405.532 490.737 348.974 514.377 290 514.377C231.027 514.377 174.469 490.737 132.768 448.659C91.0675 406.58 67.6404 349.508 67.6404 290C67.6404 230.491 91.0675 173.42 132.768 131.341C174.469 89.2625 231.027 65.6228 290 65.6228C348.974 65.6228 405.532 89.2625 447.232 131.341C488.933 173.42 512.36 230.491 512.36 290V290Z" stroke="#124DC8" stroke-width="27.043" stroke-linecap="round"/>
<path d="M246.961 239.344C245.472 239.442 244.003 240.542 242.831 242.434C233.296 257.885 217.737 264.097 208.177 264.097C206.895 264.097 205.489 263.972 204.02 263.741C201.899 274.338 199.009 283.438 196.088 291.175C200.438 292.511 204.562 293.062 208.177 293.062C219.046 293.062 234.381 288.194 247.208 271.4C260.042 288.21 275.391 293.062 286.265 293.062C297.135 293.062 312.469 288.194 325.296 271.4C338.13 288.21 353.48 293.062 364.354 293.062C369.636 293.062 375.973 291.904 382.57 288.795C379.384 281.4 376.14 272.722 373.544 262.538C370.19 263.576 367.028 264.097 364.354 264.097C354.793 264.097 339.216 257.889 329.672 242.434C328.44 240.44 326.877 239.327 325.31 239.327C323.742 239.327 322.179 240.44 320.947 242.434C311.411 257.885 295.826 264.097 286.265 264.097C276.705 264.097 261.1 257.889 251.556 242.434C250.263 240.345 248.605 239.23 246.961 239.344V239.344Z" fill="black"/>
<path d="M292.669 452.444C342.296 418.169 425.758 412.038 426.498 333.71C426.851 298.587 405.951 287.489 398.705 244.073C395.392 224.22 413.404 187.501 413.404 187.501L378.8 161.414C358.064 174.542 319.112 182.429 286.382 155.473C254.772 183.697 215.529 177.262 194.277 164.913L160.758 192.264C160.758 192.264 180.246 228.287 177.741 248.248C172.263 291.9 151.828 303.766 153.607 338.849C157.525 417.091 241.173 420.119 292.154 452.527" stroke="black" stroke-width="19.6055" stroke-linecap="round" stroke-linejoin="round"/>
<path d="M246.961 300.611C245.472 300.709 244.003 301.809 242.831 303.702C233.296 319.152 217.737 325.364 208.177 325.364C202.004 325.364 193.315 322.77 185.366 316.776C182.671 323.659 181.59 328.733 182.029 337.399C182.029 337.408 182.029 337.417 182.029 337.426C182.183 340.501 182.47 343.336 182.85 345.987C191.9 352.233 201.015 354.329 208.177 354.329C219.046 354.329 234.381 349.461 247.207 332.667C260.042 349.477 275.391 354.329 286.265 354.329C297.135 354.329 312.469 349.461 325.296 332.667C338.13 349.477 353.48 354.329 364.354 354.329C373.695 354.329 386.344 350.737 397.859 339.067C397.977 337.272 398.032 335.402 398.051 333.433C398.144 324.135 396.635 318.964 393.182 311.387C383.926 321.252 372.136 325.364 364.354 325.364C354.793 325.364 339.216 319.156 329.672 303.702C328.44 301.707 326.877 300.594 325.31 300.594C323.742 300.594 322.179 301.707 320.947 303.702C311.411 319.152 295.826 325.364 286.265 325.364C276.705 325.364 261.1 319.156 251.556 303.702C250.263 301.612 248.605 300.497 246.961 300.611V300.611Z" fill="black"/>
<path d="M246.961 360.127C245.472 360.226 244.003 361.325 242.831 363.218C234.636 376.497 222.016 382.946 212.553 384.498C214.437 385.546 216.391 386.61 218.461 387.698C225.495 391.392 233.478 394.764 242.038 398.201C243.79 396.393 245.526 394.385 247.208 392.183C251.841 398.252 256.795 402.765 261.758 406.05C267.044 408.196 272.447 410.468 277.868 412.916C280.865 413.558 283.682 413.846 286.265 413.846C297.135 413.846 312.469 408.978 325.296 392.183C327.552 395.139 329.897 397.724 332.271 399.978C343.843 394.887 354.66 390.16 363.752 384.935C363.799 384.908 363.841 384.88 363.889 384.853C354.295 384.661 339.067 378.431 329.672 363.218C328.44 361.224 326.877 360.11 325.31 360.11C323.742 360.11 322.179 361.224 320.947 363.218C311.411 378.668 295.826 384.88 286.265 384.88C276.705 384.88 261.1 378.673 251.556 363.218C250.263 361.128 248.605 360.013 246.961 360.127V360.127Z" fill="black"/>
</svg>
